!!!OTL: The Standard on the Braes o' Mar
!!!ARE: Scotland
!!!AMD: Pentatonic
**kern
*clefG2
*k[f#]
*M2/2
*MM120
{8e/
=1
8.d/L
16d/Jk
8.d/L
16e/Jk
8.g/L
16a/Jk
8.b/L}
{16a/Jk
=2
8.g/L
16e/Jk
8.e/L
16d/Jk
4e/
8g/L}
{8e/J
=3
8.d/L
16d/Jk
8.d/L
16e/Jk
8.g/L
16a/J
8.b/L}
{16a/J
=4
8.g/L
16b/Jk
8.dd\L
16b\Jk
4a/
8g/L}
{8a/J
=5
8b\L
8dd\J
8.dd\L
16dd\Jk
8b\L
8dd\J
8.dd\L}
{16ee\Jk
=6
8dd\L
8b\J
8.a/L
16b/Jk
8a/L
8g/J
8.g/L}
{16a/Jk
=7
8b\L
8dd\J
8.dd\L
16a\Jk
8b\L
8dd\J
8ee;\L}
{8ee\J
=8
16dd\LK
8.b\J
8.a/L
16b/Jk
4a/
8g/}
==
*-
